!!!COM:	Bach, Johann Sebastian
!!!CDT:	1685/02/21/-1750/07/28/
!!!OTL@@DE:	Was Gott tut, das ist wohlgetan
!!!SCT:	BWV 144/3
!!!PC#:	65
!!!AGN:	chorale
**kern	**kern	**kern	**kern
*ICvox	*ICvox	*ICvox	*ICvox
*Ibass	*Itenor	*Ialto	*Isoprn
*I"Bass	*I"Tenor	*I"Alto	*I"Soprano
*>[A,A,B]	*>[A,A,B]	*>[A,A,B]	*>[A,A,B]
*>norep[A,B]	*>norep[A,B]	*>norep[A,B]	*>norep[A,B]
*>A	*>A	*>A	*>A
*clefF4	*clefGv2	*clefG2	*clefG2
*k[f#]	*k[f#]	*k[f#]	*k[f#]
*G:	*G:	*G:	*G:
*M4/4	*M4/4	*M4/4	*M4/4
*met(c)	*met(c)	*met(c)	*met(c)
*MM100	*MM100	*MM100	*MM100
4GG	8GL	8BL	4d
.	8AJ	8cJ	.
=1	=1	=1	=1
4G	4B	4d	4g
4F#	4A	4d	4a
4G	4G	4d	4b
4C	8GL	8eL	4ee
.	8AJ	8f#J	.
=2	=2	=2	=2
8BBL	4B	4g	4.dd
8CJ	.	.	.
4D	8AL	4f#	.
.	8dJ	.	8cc
4GG;	4d;	4g;	4b;
4C	8cL	4g	4ee
.	8BJ	.	.
=3	=3	=3	=3
4D	4A	4f#	4dd
8EL	4e	8gL	4cc
8F#J	.	8aJ	.
8GL	4d	8bL	4b
8F#	.	8aJ	.
8E	4e	4g	8ccL
8DJ	.	.	8ddJ
=4	=4	=4	=4
4C	4e	4g	2a
4D	8dL	4f#	.
.	8cJ	.	.
4GG;	4B;	4d;	4g;
=:|!	=:|!	=:|!	=:|!
*>B	*>B	*>B	*>B
4G	4B	4g	4dd
=5	=5	=5	=5
4C	8cL	4g	4ee
.	8BJ	.	.
4C#	4A	4g	4ee
4D;	4d;	4f#;	4a;
8DL	4d	8f#L	4a
8EJ	.	8gJ	.
=6	=6	=6	=6
4F#	4A	8aL	4dd
.	.	8gJ	.
4BB	4B	4f#	4dd
4E;	4B;	4e;	4g;
8EL	4G	4e	4b
8DJ	.	.	.
=7	=7	=7	=7
8C#L	4A	4e	4a
8BBJ	.	.	.
4AA	4A	8dL	4g
.	.	8c#J	.
8DL	4A	4d	4f#
8C#J	.	.	.
8BBL	8GL	4d	8gL
8AAJ	8AJ	.	8f#J
=8	=8	=8	=8
4GG	4B	4d	2e
4AA	8AL	4c#	.
.	8GJ	.	.
4D;	4F#;	4d;	4d;
4BB	4G	8gL	4dd
.	.	8f#J	.
=9	=9	=9	=9
8EL	8GL	4e	4ccnX
8F#J	8AJ	.	.
4G	8BL	8dL	4b
.	8cJ	8eJ	.
8DL	4d	4f#	4a
8CJ	.	.	.
8BBL	4d	4g	8bL
8GGJ	.	.	8ccJ
=10	=10	=10	=10
2D	8dL	4g	2a
.	16cL	.	.
.	16BJJ	.	.
.	8cL	4f#	.
.	8AJ	.	.
4GG;	4B;	4d;	4g;
==	==	==	==
*-	*-	*-	*-
!!!hum2abc: -Q ''
!!!title: @{PC#}. @{OTL@@DE}
!!!YOR1: 371 vierstimmige Choralges&auml;nge von Johann Sebastian Bach, 
!!!YOR2: 4th ed. by Alfred D&ouml;rffel (Leipzig: Breitkopf und H&auml;rtel, 
!!!YOR2: c.1875). 178 pp. Plate "V.A.10".  reprint: J.S. Bach, 371 Four-Part 
!!!YOR4: Chorales (New York: Associated Music Publishers, Inc., c.1940).
!!!SMS: B&H, 4th ed, Alfred D&ouml;rffel, c.1875, plate V.A.10
!!!EED:  Craig Stuart Sapp
!!!EEV:  2009/05/22
